app/assets/images/Contenido/Odin/Servicios.svg

<svg fill="none" height="130" viewBox="0 0 117 130" width="117" xmlns="http://www.w3.org/2000/svg"><circle cx="57.8343" cy="45.4964" r="44.3397" stroke="#000" stroke-width="2.31337"/><g fill="#000"><path d="m18.6997 125.076c-2.2139 0-4.4279-.69-5.606-1.706l.9141-2.052c1.1374.914 2.9451 1.564 4.6919 1.564 2.214 0 3.1483-.792 3.1483-1.848 0-3.067-8.4496-1.056-8.4496-6.337 0-2.295 1.8281-4.245 5.7279-4.245 1.7062 0 3.4936.447 4.7326 1.259l-.8328 2.052c-1.2796-.752-2.6811-1.118-3.9201-1.118-2.1937 0-3.0874.853-3.0874 1.93 0 3.026 8.4293 1.056 8.4293 6.276 0 2.275-1.8483 4.225-5.7482 4.225zm18.3192-5.565c0 .203-.0203.508-.0406.751h-8.5106c.3047 1.585 1.6249 2.6 3.5139 2.6 1.2187 0 2.1733-.386 2.9452-1.178l1.3609 1.564c-.975 1.158-2.4984 1.767-4.367 1.767-3.6358 0-5.9919-2.336-5.9919-5.565 0-3.23 2.3764-5.545 5.606-5.545 3.1686 0 5.4841 2.214 5.4841 5.606zm-5.4841-3.575c-1.6453 0-2.8437 1.056-3.0874 2.64h6.1544c-.2031-1.564-1.4015-2.64-3.067-2.64zm10.34-.325c.7312-1.138 2.0515-1.706 3.8592-1.706v2.417c-.2234-.041-.4062-.061-.5891-.061-1.9296 0-3.1482 1.137-3.1482 3.351v5.261h-2.539v-10.846h2.4171zm14.1281-1.584h2.4374l-4.6513 10.846h-2.6202l-4.6514-10.846h2.6405l3.3717 8.043zm5.3039-1.788c-.9344 0-1.6249-.67-1.6249-1.523s.6905-1.524 1.6249-1.524c.9343 0 1.6249.63 1.6249 1.463 0 .894-.6703 1.584-1.6249 1.584zm-1.2797 12.634v-10.846h2.539v10.846zm10.8477.142c-3.4327 0-5.87-2.315-5.87-5.565s2.4373-5.545 5.87-5.545c2.1124 0 3.7983.873 4.631 2.518l-1.9499 1.138c-.6499-1.036-1.6249-1.503-2.7014-1.503-1.8687 0-3.2905 1.3-3.2905 3.392 0 2.112 1.4218 3.392 3.2905 3.392 1.0765 0 2.0515-.467 2.7014-1.503l1.9499 1.137c-.8327 1.625-2.5186 2.539-4.631 2.539zm8.1054-12.776c-.9343 0-1.6249-.67-1.6249-1.523s.6906-1.524 1.6249-1.524c.9344 0 1.625.63 1.625 1.463 0 .894-.6703 1.584-1.625 1.584zm-1.2796 12.634v-10.846h2.539v10.846zm10.7461.142c-3.3311 0-5.7685-2.315-5.7685-5.565s2.4374-5.545 5.7685-5.545c3.3717 0 5.7888 2.295 5.7888 5.545s-2.4171 5.565-5.7888 5.565zm0-2.173c1.8484 0 3.2295-1.32 3.2295-3.392s-1.3811-3.392-3.2295-3.392c-1.828 0-3.2092 1.32-3.2092 3.392s1.3812 3.392 3.2092 3.392zm11.5683 2.173c-1.8079 0-3.6157-.528-4.5906-1.219l.9749-1.929c.9547.63 2.4171 1.076 3.7777 1.076 1.605 0 2.275-.446 2.275-1.198 0-2.072-6.7026-.122-6.7026-4.448 0-2.052 1.8483-3.392 4.7736-3.392 1.442 0 3.087.345 4.062.934l-.975 1.93c-1.036-.61-2.072-.813-3.108-.813-1.5434 0-2.2746.508-2.2746 1.219 0 2.194 6.7026.244 6.7026 4.489 0 2.031-1.868 3.351-4.915 3.351z"/><path d="m82.4598 28.507h-1.4179v-2.8357c0-1.5041-.5975-2.9466-1.6611-4.0102-1.0635-1.0636-2.5061-1.6611-4.0102-1.6611h-39.6993c-1.5041 0-2.9466.5975-4.0102 1.6611s-1.6611 2.5061-1.6611 4.0102v8.507c0 1.5041.5975 2.9467 1.6611 4.0102 1.0636 1.0636 2.5061 1.6611 4.0102 1.6611h39.6993c1.5041 0 2.9467-.5975 4.0102-1.6611 1.0636-1.0635 1.6611-2.5061 1.6611-4.0102v-2.8357h1.4179c.376 0 .7366.1494 1.0025.4153s.4153.6265.4153 1.0026v8.507c0 .376-.1494.7366-.4153 1.0025s-.6265.4153-1.0025.4153h-24.1032c-1.1281 0-2.21.4481-3.0076 1.2458-.7977.7977-1.2459 1.8796-1.2459 3.0077v3.5587c-1.3228 1.0207-2.394 2.3311-3.1313 3.8304-.7374 1.4992-1.1213 3.1476-1.1222 4.8184v14.7313c0 1.1281.4482 2.21 1.2459 3.0077.7976.7976 1.8795 1.2458 3.0076 1.2458h2.8357c1.1281 0 2.21-.4482 3.0077-1.2458.7977-.7977 1.2458-1.8796 1.2458-3.0077v-14.7313c-.0009-1.6708-.3848-3.3192-1.1221-4.8184-.7374-1.4993-1.8086-2.8097-3.1314-3.8304v-3.5587c0-.376.1494-.7367.4153-1.0026s.6265-.4152 1.0025-.4152h24.1032c1.1281 0 2.2099-.4482 3.0076-1.2459.7977-.7976 1.2459-1.8795 1.2459-3.0076v-8.507c0-1.1281-.4482-2.21-1.2459-3.0077s-1.8795-1.2458-3.0076-1.2458zm-4.2535 5.6713c0 .7521-.2988 1.4733-.8306 2.0051s-1.253.8306-2.0051.8306h-39.6993c-.752 0-1.4733-.2988-2.0051-.8306s-.8305-1.253-.8305-2.0051v-8.507c0-.752.2987-1.4733.8305-2.0051s1.2531-.8305 2.0051-.8305h39.6993c.7521 0 1.4733.2987 2.0051.8305s.8306 1.2531.8306 2.0051zm-19.8497 24.968v14.7313c0 .376-.1494.7367-.4152 1.0025-.2659.2659-.6266.4153-1.0026.4153h-2.8357c-.376 0-.7366-.1494-1.0025-.4153-.2659-.2658-.4153-.6265-.4153-1.0025v-14.7313c-.0012-1.1739.2517-2.3342.7411-3.4013.4895-1.067 1.204-2.0155 2.0946-2.7804.8905.7649 1.605 1.7134 2.0945 2.7804.4895 1.0671.7423 2.2274.7411 3.4013z"/></g></svg>

<svg width="117" height="130" viewBox="0 0 117 130" fill="none" xmlns="http://www.w3.org/2000/svg">
<circle cx="57.8343" cy="45.4964" r="44.3397" stroke="black" stroke-width="2.31337"/>
<path d="M18.6997 125.076C16.4858 125.076 14.2718 124.386 13.0937 123.37L14.0078 121.318C15.1452 122.232 16.9529 122.882 18.6997 122.882C20.9137 122.882 21.848 122.09 21.848 121.034C21.848 117.967 13.3984 119.978 13.3984 114.697C13.3984 112.402 15.2265 110.452 19.1263 110.452C20.8325 110.452 22.6199 110.899 23.8589 111.711L23.0261 113.763C21.7465 113.011 20.345 112.645 19.106 112.645C16.9123 112.645 16.0186 113.498 16.0186 114.575C16.0186 117.601 24.4479 115.631 24.4479 120.851C24.4479 123.126 22.5996 125.076 18.6997 125.076ZM37.0189 119.511C37.0189 119.714 36.9986 120.019 36.9783 120.262H28.4677C28.7724 121.847 30.0926 122.862 31.9816 122.862C33.2003 122.862 34.1549 122.476 34.9268 121.684L36.2877 123.248C35.3127 124.406 33.7893 125.015 31.9207 125.015C28.2849 125.015 25.9288 122.679 25.9288 119.45C25.9288 116.22 28.3052 113.905 31.5348 113.905C34.7034 113.905 37.0189 116.119 37.0189 119.511ZM31.5348 115.936C29.8895 115.936 28.6911 116.992 28.4474 118.576H34.6018C34.3987 117.012 33.2003 115.936 31.5348 115.936ZM41.8748 115.611C42.606 114.473 43.9263 113.905 45.734 113.905V116.322C45.5106 116.281 45.3278 116.261 45.1449 116.261C43.2153 116.261 41.9967 117.398 41.9967 119.612V124.873H39.4577V114.027H41.8748V115.611ZM56.0029 114.027H58.4403L53.789 124.873H51.1688L46.5174 114.027H49.1579L52.5296 122.07L56.0029 114.027ZM61.3068 112.239C60.3724 112.239 59.6819 111.569 59.6819 110.716C59.6819 109.863 60.3724 109.192 61.3068 109.192C62.2411 109.192 62.9317 109.822 62.9317 110.655C62.9317 111.549 62.2614 112.239 61.3068 112.239ZM60.0271 124.873V114.027H62.5661V124.873H60.0271ZM70.8748 125.015C67.4421 125.015 65.0048 122.7 65.0048 119.45C65.0048 116.2 67.4421 113.905 70.8748 113.905C72.9872 113.905 74.6731 114.778 75.5058 116.423L73.5559 117.561C72.906 116.525 71.931 116.058 70.8545 116.058C68.9858 116.058 67.564 117.358 67.564 119.45C67.564 121.562 68.9858 122.842 70.8545 122.842C71.931 122.842 72.906 122.375 73.5559 121.339L75.5058 122.476C74.6731 124.101 72.9872 125.015 70.8748 125.015ZM78.9802 112.239C78.0459 112.239 77.3553 111.569 77.3553 110.716C77.3553 109.863 78.0459 109.192 78.9802 109.192C79.9146 109.192 80.6052 109.822 80.6052 110.655C80.6052 111.549 79.9349 112.239 78.9802 112.239ZM77.7006 124.873V114.027H80.2396V124.873H77.7006ZM88.4467 125.015C85.1156 125.015 82.6782 122.7 82.6782 119.45C82.6782 116.2 85.1156 113.905 88.4467 113.905C91.8184 113.905 94.2355 116.2 94.2355 119.45C94.2355 122.7 91.8184 125.015 88.4467 125.015ZM88.4467 122.842C90.2951 122.842 91.6762 121.522 91.6762 119.45C91.6762 117.378 90.2951 116.058 88.4467 116.058C86.6187 116.058 85.2375 117.378 85.2375 119.45C85.2375 121.522 86.6187 122.842 88.4467 122.842ZM100.015 125.015C98.2071 125.015 96.3993 124.487 95.4244 123.796L96.3993 121.867C97.354 122.497 98.8164 122.943 100.177 122.943C101.782 122.943 102.452 122.497 102.452 121.745C102.452 119.673 95.7494 121.623 95.7494 117.297C95.7494 115.245 97.5977 113.905 100.523 113.905C101.965 113.905 103.61 114.25 104.585 114.839L103.61 116.769C102.574 116.159 101.538 115.956 100.502 115.956C98.9586 115.956 98.2274 116.464 98.2274 117.175C98.2274 119.369 104.93 117.419 104.93 121.664C104.93 123.695 103.062 125.015 100.015 125.015Z" fill="black"/>
<path d="M82.4598 28.507H81.0419V25.6713C81.0419 24.1672 80.4444 22.7247 79.3808 21.6611C78.3173 20.5975 76.8747 20 75.3706 20H35.6713C34.1672 20 32.7247 20.5975 31.6611 21.6611C30.5975 22.7247 30 24.1672 30 25.6713V34.1783C30 35.6824 30.5975 37.125 31.6611 38.1885C32.7247 39.2521 34.1672 39.8496 35.6713 39.8496H75.3706C76.8747 39.8496 78.3173 39.2521 79.3808 38.1885C80.4444 37.125 81.0419 35.6824 81.0419 34.1783V31.3426H82.4598C82.8358 31.3426 83.1964 31.492 83.4623 31.7579C83.7282 32.0238 83.8776 32.3844 83.8776 32.7605V41.2675C83.8776 41.6435 83.7282 42.0041 83.4623 42.27C83.1964 42.5359 82.8358 42.6853 82.4598 42.6853H58.3566C57.2285 42.6853 56.1466 43.1334 55.349 43.9311C54.5513 44.7288 54.1031 45.8107 54.1031 46.9388V50.4975C52.7803 51.5182 51.7091 52.8286 50.9718 54.3279C50.2344 55.8271 49.8505 57.4755 49.8496 59.1463V73.8776C49.8496 75.0057 50.2978 76.0876 51.0955 76.8853C51.8931 77.6829 52.975 78.1311 54.1031 78.1311H56.9388C58.0669 78.1311 59.1488 77.6829 59.9465 76.8853C60.7442 76.0876 61.1923 75.0057 61.1923 73.8776V59.1463C61.1914 57.4755 60.8075 55.8271 60.0702 54.3279C59.3328 52.8286 58.2616 51.5182 56.9388 50.4975V46.9388C56.9388 46.5628 57.0882 46.2021 57.3541 45.9362C57.62 45.6703 57.9806 45.521 58.3566 45.521H82.4598C83.5879 45.521 84.6697 45.0728 85.4674 44.2751C86.2651 43.4775 86.7133 42.3956 86.7133 41.2675V32.7605C86.7133 31.6324 86.2651 30.5505 85.4674 29.7528C84.6697 28.9551 83.5879 28.507 82.4598 28.507ZM78.2063 34.1783C78.2063 34.9304 77.9075 35.6516 77.3757 36.1834C76.8439 36.7152 76.1227 37.014 75.3706 37.014H35.6713C34.9193 37.014 34.198 36.7152 33.6662 36.1834C33.1344 35.6516 32.8357 34.9304 32.8357 34.1783V25.6713C32.8357 24.9193 33.1344 24.198 33.6662 23.6662C34.198 23.1344 34.9193 22.8357 35.6713 22.8357H75.3706C76.1227 22.8357 76.8439 23.1344 77.3757 23.6662C77.9075 24.198 78.2063 24.9193 78.2063 25.6713V34.1783ZM58.3566 59.1463V73.8776C58.3566 74.2536 58.2072 74.6143 57.9414 74.8801C57.6755 75.146 57.3148 75.2954 56.9388 75.2954H54.1031C53.7271 75.2954 53.3665 75.146 53.1006 74.8801C52.8347 74.6143 52.6853 74.2536 52.6853 73.8776V59.1463C52.6841 57.9724 52.937 56.8121 53.4264 55.745C53.9159 54.678 54.6304 53.7295 55.521 52.9646C56.4115 53.7295 57.126 54.678 57.6155 55.745C58.105 56.8121 58.3578 57.9724 58.3566 59.1463Z" fill="black"/>
</svg>
